svg/solid/bxs-invader.svg

<svg xmlns="http://www.w3.org/2000/svg" width="24" height="24"><path d="M6 3h2v2H6zm2 16h3v2H8zm8-16h2v2h-2zm-3 16h3v2h-3zm7-8V9h-2V7h-2V5h-2v2h-4V5H8v2H6v2H4v2H2v8h2v-4h2v4h2v-3h8v3h2v-4h2v4h2v-8zm-10 1H8V9h2zm6 0h-2V9h2z"/></svg>

<svg xmlns="http://www.w3.org/2000/svg" width="24" height="24" viewBox="0 0 24 24"><rect x="6" y="3" width="2" height="2"/><rect x="8" y="19" width="3" height="2"/><rect x="16" y="3" width="2" height="2"/><rect x="13" y="19" width="3" height="2"/><path d="M20,11V9H18V7H16V5H14V7H10V5H8V7H6V9H4v2H2v8H4V15H6v4H8V16h8v3h2V15h2v4h2V11ZM10,12H8V9h2Zm6,0H14V9h2Z"/></svg>
